music-note-sixteenth.svg

<svg fill="currentColor" viewBox="0 0 24 24"><path d="M18 7V3h-6v10.55c-.59-.34-1.27-.55-2-.55-2.21 0-4 1.79-4 4s1.79 4 4 4 4-1.79 4-4v-6h4V8h-4V7z"/></svg>

<svg  viewBox="0 0 24 24" fill="currentColor"><path  d="M18 7V3H12V13.55C11.41 13.21 10.73 13 10 13C7.79 13 6 14.79 6 17S7.79 21 10 21 14 19.21 14 17V11H18V8H14V7H18Z"/></svg>
